X: 221
T: Duke of Gloster's new March
B: C. & S. Thompson, "The Compleat Tutor for the Fife" c.1760 p.22 #1
S: http://imslp.org/wiki/The_Compleat_Tutor_for_the_Fife_(Anonymous)
Z: 2014 John Chambers <jc:trillian.mit.edu>
M: C
L: 1/8
K: D
% - - - - - - - - - - - - - - - - - - - - - - - - -
z/A/B/c/ |\
Td>cTd>c Td>cTd>f | e>dc>B A2g2 |\
f>af>d e>ge>c | d2d>d d2d>e |
f2-f>e d>cB>A | A2^G2 A2d2 |\
c>ec>A B>dB>^G | A2A>A A2 :|
|: z/(A/B/c/) |\
d2-d>f a>fd>A | B2G>G G2e>f |\
g2-g>f e2d2 | c2A>A A2 z/A/B/c/ |
Td>cTd>c Td>cTd>f | e>dc>B A2g2 |\
f>af>d e>ge>c | d2d>d d2d2 :|
% - - - - - - - - - - - - - - - - - - - - - - - - -

%%sep 1 1 500
%%sep 1 1 500

